static/assets/head_icons_png/man/bizi/1026054.svg

<svg xmlns="http://www.w3.org/2000/svg" width="5" height="8"><g transform="translate(2.5 3.55)"><path d="M-1.95.65h.05-.05" fill="#fedec1"/><radialGradient id="a" gradientUnits="userSpaceOnUse" gradientTransform="matrix(.00652 0 0 .00525 .15 4.55)" spreadMethod="pad" cx="0" cy="0" r="819.2" fx="0" fy="0"><stop offset=".008" stop-color="#f6b181"/><stop offset="1" stop-color="#fedec1"/></radialGradient><path d="M1.9.05V.2L1.85.05h.05m.3 1.25v.1l-.05.2-.4.85-1.2.6h-1.2q-.95-.2-1.3-.6-.4-.4-.25-1.1l.1-.15.2-.55h-.05l.9-3.15Q-.8-5.6 1.9.4l.05.15.1.15v.05L2.1 1l.05.1v-.05l.05.1v.15m0-.15L2.15 1V.75h.05v.4m-.05.15l-.05.1h.05v-.1M-.35.25H-.4h.05" fill="url(#a)"/><radialGradient id="b" gradientUnits="userSpaceOnUse" gradientTransform="matrix(.00484 0 0 .0039 -.3 4.5)" spreadMethod="pad" cx="0" cy="0" r="819.2" fx="0" fy="0"><stop offset="0" stop-color="#f39b61"/><stop offset="1" stop-color="#f8be98"/></radialGradient><path d="M2.15 1.35v.05H2.1l.05-.05" fill="url(#b)"/><radialGradient id="c" gradientUnits="userSpaceOnUse" gradientTransform="matrix(.00484 0 0 .0039 -.3 4.5)" spreadMethod="pad" cx="0" cy="0" r="819.2" fx="0" fy="0"><stop offset="0" stop-color="#f39b61"/><stop offset="1" stop-color="#f8be98" stop-opacity=".463"/></radialGradient><path d="M2.2.75h.05L2.15.5l.2.4.15.8q0 .7-.65 1.3-.7.65-2.55.55-2-.15-1.75-2.1l.25-.15v.05q-.15.7.25 1.1.35.4 1.3.6h1.2l1.2-.6.4-.85.05-.2V.75" fill="url(#c)"/><radialGradient id="d" gradientUnits="userSpaceOnUse" gradientTransform="matrix(.00305 0 0 .00246 -.5 .6)" spreadMethod="pad" cx="0" cy="0" r="819.2" fx="0" fy="0"><stop offset="0" stop-color="#f39b61" stop-opacity=".4"/><stop offset=".988" stop-color="#f8be98" stop-opacity=".212"/></radialGradient><path d="M.05.95L-.55.9l-1.15.15h.05Q-.9.45-.3.4L.9.65l.7.3-.6.1L.55 1 .05.95" fill="url(#d)"/><radialGradient id="e" gradientUnits="userSpaceOnUse" gradientTransform="matrix(0 -.00209 .00359 0 -.35 2.1)" spreadMethod="pad" cx="0" cy="0" r="819.2" fx="0" fy="0"><stop offset="0" stop-color="#fff" stop-opacity=".631"/><stop offset=".965" stop-color="#ffd" stop-opacity="0"/></radialGradient><path d="M.55 1q1.25.35 1.25 1.2-.05.85-1.95.8-1.95-.1-2.05-.65l-.15-.6q.2-.65 2.4-.8l.5.05" fill="url(#e)"/></g></svg>

<?xml version="1.0" encoding="utf-8"?>
<svg version="1.1" id="Layer_1"
xmlns="http://www.w3.org/2000/svg"
xmlns:xlink="http://www.w3.org/1999/xlink"
xmlns:author="http://www.sothink.com"
width="5px" height="8px"
xml:space="preserve">
<g id="467" transform="matrix(1, 0, 0, 1, 2.5, 3.55)">
<path style="fill:#FEDEC1;fill-opacity:1" d="M-1.95,0.65L-1.9 0.65L-1.95 0.65" />
<radialGradient
id="RadialGradID_4065" gradientUnits="userSpaceOnUse" gradientTransform="matrix(0.0065155, 0, 0, 0.00524902, 0.15, 4.55)" spreadMethod ="pad" cx="0" cy="0" r="819.2" fx="0" fy="0" >
<stop  offset="0.00784314"  style="stop-color:#F6B181;stop-opacity:1" />
<stop  offset="1"  style="stop-color:#FEDEC1;stop-opacity:1" />
</radialGradient>
<path style="fill:url(#RadialGradID_4065) " d="M1.9,0.05L1.9 0.2L1.85 0.05L1.9 0.05M2.2,1.3L2.2 1.4L2.15 1.6L1.75 2.45L0.55 3.05L-0.65 3.05Q-1.6 2.85 -1.95 2.45Q-2.35 2.05 -2.2 1.35L-2.1 1.2L-1.9 0.65L-1.95 0.65L-1.05 -2.5Q-0.8 -5.6 1.9 0.4L1.95 0.55L2.05 0.7L2.05 0.75L2.1 1L2.15 1.1L2.15 1.05L2.2 1.15L2.2 1.3M2.2,1.15L2.15 1L2.15 0.75L2.2 0.75L2.2 1.15M2.15,1.3L2.1 1.4L2.15 1.4L2.15 1.35L2.15 1.3M-0.35,0.25L-0.4 0.25L-0.35 0.25" />
<radialGradient
id="RadialGradID_4066" gradientUnits="userSpaceOnUse" gradientTransform="matrix(0.00483704, 0, 0, 0.00389099, -0.3, 4.5)" spreadMethod ="pad" cx="0" cy="0" r="819.2" fx="0" fy="0" >
<stop  offset="0"  style="stop-color:#F39B61;stop-opacity:1" />
<stop  offset="1"  style="stop-color:#F8BE98;stop-opacity:1" />
</radialGradient>
<path style="fill:url(#RadialGradID_4066) " d="M2.15,1.35L2.15 1.4L2.1 1.4L2.15 1.35" />
<radialGradient
id="RadialGradID_4067" gradientUnits="userSpaceOnUse" gradientTransform="matrix(0.00483704, 0, 0, 0.00389099, -0.3, 4.5)" spreadMethod ="pad" cx="0" cy="0" r="819.2" fx="0" fy="0" >
<stop  offset="0"  style="stop-color:#F39B61;stop-opacity:1" />
<stop  offset="1"  style="stop-color:#F8BE98;stop-opacity:0.462745" />
</radialGradient>
<path style="fill:url(#RadialGradID_4067) " d="M2.2,0.75L2.25 0.75L2.15 0.5L2.35 0.9L2.5 1.7Q2.5 2.4 1.85 3Q1.15 3.65 -0.7 3.55Q-2.7 3.4 -2.45 1.45L-2.2 1.3L-2.2 1.35Q-2.35 2.05 -1.95 2.45Q-1.6 2.85 -0.65 3.05L0.55 3.05L1.75 2.45L2.15 1.6L2.2 1.4L2.2 1.3L2.2 1.15L2.2 0.75" />
<radialGradient
id="RadialGradID_4068" gradientUnits="userSpaceOnUse" gradientTransform="matrix(0.00305176, 0, 0, 0.00245667, -0.5, 0.6)" spreadMethod ="pad" cx="0" cy="0" r="819.2" fx="0" fy="0" >
<stop  offset="0"  style="stop-color:#F39B61;stop-opacity:0.4" />
<stop  offset="0.988235"  style="stop-color:#F8BE98;stop-opacity:0.211765" />
</radialGradient>
<path style="fill:url(#RadialGradID_4068) " d="M0.05,0.95L-0.55 0.9L-1.7 1.05L-1.65 1.05Q-0.9 0.45 -0.3 0.4L0.9 0.65L1.6 0.95L1 1.05L0.55 1L0.05 0.95" />
<radialGradient
id="RadialGradID_4069" gradientUnits="userSpaceOnUse" gradientTransform="matrix(0, -0.00209045, 0.00358582, 0, -0.35, 2.1)" spreadMethod ="pad" cx="0" cy="0" r="819.2" fx="0" fy="0" >
<stop  offset="0"  style="stop-color:#FFFFFF;stop-opacity:0.631373" />
<stop  offset="0.964706"  style="stop-color:#FFFFDD;stop-opacity:0" />
</radialGradient>
<path style="fill:url(#RadialGradID_4069) " d="M0.55,1Q1.8 1.35 1.8 2.2Q1.75 3.05 -0.15 3Q-2.1 2.9 -2.2 2.35L-2.35 1.75Q-2.15 1.1 0.05 0.95L0.55 1" />
</g>
</svg>
